X:1
T:Title
L:1/8
M:4/4
K:C
V:1 treble nm="Grand Piano"
V:1
 z4 z2[Q:1/4=100] C2 | G3 A G2 EA | G2 EA G2 E2 | F3 F F2 G2 |[M:3/4] F6 |[M:1/4] DF | %6
[M:4/4] B3 c B2 GB | A2 FA G2 E2 | F3 F G2 FG |[M:3/4] E6 |[M:1/4] EG |[M:4/4] c3 c c2 c2 | %12
 c3 c G2 EG | A3 A B2 A2 |[M:3/4] G6 |[M:1/4] EG |[M:4/4] A3 A F2 DF | B3 B ^G2 AB | c3 c cABc | %19
[M:3/4] d6 |[M:1/4] ed |[M:4/4] c3 c c2 c2 | A3 A c2 c2 | G3 G B2 d2 | c6 z2 |] %25

